web/packages/design/src/ResourceIcon/assets/workshop-dark.svg

<svg width="72" height="72" viewBox="0 0 72 72" fill="none" xmlns="http://www.w3.org/2000/svg">
<g clip-path="url(#clip0_16976_12183)">
<path d="M0.63655 11.0088C0.236691 11.0088 -0.0679696 11.3769 0.0145409 11.7704L4.22258 31.9347C4.28605 32.2267 4.54626 32.4425 4.84457 32.4425H14.0477C14.4666 32.4425 14.6951 32.9376 14.4158 33.2549L11.547 36.5045C11.4137 36.6505 11.3629 36.8536 11.401 37.0504L16.1929 60.8197C16.2501 61.118 16.5103 61.3275 16.8149 61.3275H30.9687C31.2606 61.3275 31.5208 61.1244 31.5907 60.8324C34.5801 48.2464 36.7571 37.9453 38.4898 28.2345H38.8706C40.6732 38.7577 43.0723 49.3571 45.7698 60.8324C45.8396 61.118 46.0935 61.3275 46.3918 61.3275H61.4848C61.7895 61.3275 62.0497 61.1117 62.1068 60.8197L71.9891 11.7641C72.0652 11.3706 71.7669 11.0024 71.3671 11.0024H59.6188C58.4193 11.0024 57.372 11.8466 57.1308 13.0271C54.7634 24.4834 52.8276 35.3748 51.6026 45.3141C49.9842 34.0419 46.9249 22.8395 44.329 12.1259C44.1703 11.4658 43.5801 11.0024 42.9009 11.0024H34.4658C33.7867 11.0024 33.1964 11.4658 33.0314 12.1259C30.0928 24.0581 27.4651 35.2605 25.9863 45.3141L20.585 15.2993L20.1281 13.0398C19.8869 11.8529 18.846 11.0024 17.64 11.0024H0.649237L0.63655 11.0088Z" fill="white"/>
</g>
<defs>
<clipPath id="clip0_16976_12183">
<rect width="72" height="72" fill="white" transform="translate(0.000976562 0.00244141)"/>
</clipPath>
</defs>
</svg>

<svg xmlns="http://www.w3.org/2000/svg" width="72" height="72" fill="none" viewBox="0 0 72 72"><g clip-path="url(#a)"><path fill="#fff" d="M.637 11.009c-.4 0-.705.368-.622.761l4.208 20.165a.644.644 0 0 0 .622.508h9.203a.49.49 0 0 1 .368.812l-2.869 3.25a.63.63 0 0 0-.146.545l4.792 23.77a.63.63 0 0 0 .622.508h14.154a.64.64 0 0 0 .622-.496c2.99-12.586 5.166-22.887 6.899-32.597h.38c1.803 10.523 4.202 21.122 6.9 32.597.07.286.323.495.622.495h15.093a.63.63 0 0 0 .622-.507l9.882-49.056a.638.638 0 0 0-.622-.762H59.62a2.54 2.54 0 0 0-2.488 2.025c-2.368 11.456-4.303 22.348-5.528 32.287-1.619-11.272-4.678-22.474-7.274-33.188a1.47 1.47 0 0 0-1.428-1.124h-8.435c-.68 0-1.27.464-1.435 1.124-2.938 11.932-5.566 23.135-7.045 33.188L20.585 15.3l-.457-2.26a2.54 2.54 0 0 0-2.488-2.037H.65z"/></g><defs><clipPath id="a"><path fill="#fff" d="M.001.002h72v72h-72z"/></clipPath></defs></svg>
